src/assets/svg/pause.svg

<svg height="42" viewBox="0 0 42 42" width="42" xmlns="http://www.w3.org/2000/svg"><path d="m28.5 27.75v-13.5c0-.2187511-.0703118-.3984368-.2109375-.5390625s-.3203114-.2109375-.5390625-.2109375h-13.5c-.2187511 0-.3984368.0703118-.5390625.2109375s-.2109375.3203114-.2109375.5390625v13.5c0 .2187511.0703118.3984368.2109375.5390625s.3203114.2109375.5390625.2109375h13.5c.2187511 0 .3984368-.0703118.5390625-.2109375s.2109375-.3203114.2109375-.5390625zm10.5-6.75c0 3.2656413-.8046795 6.27733-2.4140625 9.0351562-1.609383 2.7578263-3.792955 4.9413983-6.5507813 6.5507813-2.7578262 1.609383-5.7695149 2.4140625-9.0351562 2.4140625s-6.27733-.8046795-9.0351562-2.4140625c-2.75782634-1.609383-4.94139825-3.792955-6.5507813-6.5507813-1.60938305-2.7578262-2.4140625-5.7695149-2.4140625-9.0351562s.80467945-6.27733 2.4140625-9.0351562c1.60938305-2.75782634 3.79295496-4.94139825 6.5507813-6.5507813 2.7578262-1.60938305 5.7695149-2.4140625 9.0351562-2.4140625s6.27733.80467945 9.0351562 2.4140625c2.7578263 1.60938305 4.9413983 3.79295496 6.5507813 6.5507813 1.609383 2.7578262 2.4140625 5.7695149 2.4140625 9.0351562z" fill="#fff" fill-rule="evenodd"/></svg>

<?xml version="1.0" encoding="UTF-8" standalone="no"?>
<svg width="42px" height="42px" viewBox="0 0 42 42" version="1.1" xmlns="http://www.w3.org/2000/svg" xmlns:xlink="http://www.w3.org/1999/xlink" xmlns:sketch="http://www.bohemiancoding.com/sketch/ns">
    <!-- Generator: Sketch 3.5.1 (25234) - http://www.bohemiancoding.com/sketch -->
    <title>pause</title>
    <desc>Created with Sketch.</desc>
    <defs></defs>
    <g id="Page-1" stroke="none" stroke-width="1" fill="none" fill-rule="evenodd" sketch:type="MSPage">
        <g id="pause" sketch:type="MSArtboardGroup" fill="#FFFFFF">
            <path d="M28.5,27.75 L28.5,14.25 C28.5,14.0312489 28.4296882,13.8515632 28.2890625,13.7109375 C28.1484368,13.5703118 27.9687511,13.5 27.75,13.5 L14.25,13.5 C14.0312489,13.5 13.8515632,13.5703118 13.7109375,13.7109375 C13.5703118,13.8515632 13.5,14.0312489 13.5,14.25 L13.5,27.75 C13.5,27.9687511 13.5703118,28.1484368 13.7109375,28.2890625 C13.8515632,28.4296882 14.0312489,28.5 14.25,28.5 L27.75,28.5 C27.9687511,28.5 28.1484368,28.4296882 28.2890625,28.2890625 C28.4296882,28.1484368 28.5,27.9687511 28.5,27.75 L28.5,27.75 Z M39,21 C39,24.2656413 38.1953205,27.27733 36.5859375,30.0351562 C34.9765545,32.7929825 32.7929825,34.9765545 30.0351562,36.5859375 C27.27733,38.1953205 24.2656413,39 21,39 C17.7343587,39 14.72267,38.1953205 11.9648438,36.5859375 C9.20701746,34.9765545 7.02344555,32.7929825 5.4140625,30.0351562 C3.80467945,27.27733 3,24.2656413 3,21 C3,17.7343587 3.80467945,14.72267 5.4140625,11.9648438 C7.02344555,9.20701746 9.20701746,7.02344555 11.9648438,5.4140625 C14.72267,3.80467945 17.7343587,3 21,3 C24.2656413,3 27.27733,3.80467945 30.0351562,5.4140625 C32.7929825,7.02344555 34.9765545,9.20701746 36.5859375,11.9648438 C38.1953205,14.72267 39,17.7343587 39,21 L39,21 Z" id="" sketch:type="MSShapeGroup"></path>
        </g>
    </g>
</svg>
